resources/icons/20px/syringe.svg

<svg width="20" height="20" viewBox="0 0 20 20" fill="none" xmlns="http://www.w3.org/2000/svg">
<path fill-rule="evenodd" clip-rule="evenodd" d="M15.1464 0.853553C14.9512 0.658291 14.9512 0.341709 15.1464 0.146447C15.3417 -0.0488155 15.6583 -0.0488155 15.8536 0.146447L19.8536 4.14645C20.0488 4.34171 20.0488 4.65829 19.8536 4.85355C19.6583 5.04882 19.3417 5.04882 19.1464 4.85355L18.5 4.20711L17.2071 5.5L18.8536 7.14645C19.0488 7.34171 19.0488 7.65829 18.8536 7.85355C18.6583 8.04882 18.3417 8.04882 18.1464 7.85355L17.5 7.20711L16.3539 8.35324L8.85355 15.8536C8.65829 16.0488 8.34171 16.0488 8.14645 15.8536L7.5 15.2071L4.85355 17.8536C4.65829 18.0488 4.34171 18.0488 4.14645 17.8536L3.5 17.2071L0.853555 19.8536C0.658292 20.0488 0.34171 20.0488 0.146447 19.8536C-0.0488157 19.6583 -0.0488157 19.3417 0.146447 19.1464L2.79289 16.5L2.14645 15.8536C1.95118 15.6583 1.95118 15.3417 2.14645 15.1464L4.79289 12.5L4.14645 11.8536C3.95118 11.6583 3.95118 11.3417 4.14645 11.1464L11.6461 3.6468C11.6462 3.64668 11.646 3.64692 11.6461 3.6468C11.6462 3.64668 11.6467 3.64621 11.6468 3.64609L12.7929 2.5L12.1464 1.85355C11.9512 1.65829 11.9512 1.34171 12.1464 1.14645C12.3417 0.951184 12.6583 0.951184 12.8536 1.14645L14.5 2.79289L15.7929 1.5L15.1464 0.853553ZM12.7071 4L13.5 3.20711L16.7929 6.5L16 7.29289L12.7071 4ZM15.2929 8L14.5 8.79289L12.8536 7.14645C12.6583 6.95118 12.3417 6.95118 12.1464 7.14645C11.9512 7.34171 11.9512 7.65829 12.1464 7.85355L13.7929 9.5L12.5 10.7929L10.8536 9.14645C10.6583 8.95118 10.3417 8.95118 10.1464 9.14645C9.95119 9.34171 9.95119 9.65829 10.1464 9.85355L11.7929 11.5L10.5 12.7929L8.85355 11.1464C8.65829 10.9512 8.34171 10.9512 8.14645 11.1464C7.95119 11.3417 7.95119 11.6583 8.14645 11.8536L9.79289 13.5L8.5 14.7929L5.20711 11.5L12 4.70711L15.2929 8ZM3.20711 15.5L5.5 13.2071L6.79289 14.5L4.5 16.7929L3.20711 15.5ZM16.5 2.20711L17.7929 3.5L16.5 4.79289L15.2071 3.5L16.5 2.20711Z" fill="black"/>
</svg>

<svg xmlns="http://www.w3.org/2000/svg" viewBox="0 0 20 20">
  <path d="M15.146.854a.5.5 0 0 1 .708-.708l4 4a.5.5 0 0 1-.708.708l-.646-.647L17.207 5.5l1.647 1.646a.5.5 0 0 1-.708.708l-.646-.647-1.146 1.146-7.5 7.5a.5.5 0 0 1-.708 0l-.646-.646-2.646 2.647a.5.5 0 0 1-.708 0l-.646-.647-2.646 2.647a.5.5 0 0 1-.708-.708L2.793 16.5l-.647-.646a.5.5 0 0 1 0-.708L4.793 12.5l-.647-.646a.5.5 0 0 1 0-.708l7.5-7.5L12.794 2.5l-.647-.646a.5.5 0 0 1 .708-.708L14.5 2.793 15.793 1.5zM12.707 4l.793-.793L16.793 6.5 16 7.293zm2.586 4-.793.793-1.646-1.647a.5.5 0 0 0-.708.708L13.793 9.5 12.5 10.793l-1.646-1.647a.5.5 0 0 0-.708.708l1.647 1.646-1.293 1.293-1.646-1.647a.5.5 0 0 0-.708.708L9.793 13.5 8.5 14.793 5.207 11.5 12 4.707zM3.207 15.5 5.5 13.207 6.793 14.5 4.5 16.793zM16.5 2.207 17.793 3.5 16.5 4.793 15.207 3.5z"/>
</svg>
